X:2382
T:Ushtey Millish 'sy Gharee
T:Sweet Water in the Common 
C:Tom Crellin, Peel
C:Traditional
O:Isle of Man
N:See KV232
Z:Kiaull Vannin 382 
L:1/4
M:4/4 
Q:30 
K:D 
D|F FD D|(FGA) A|(GF) DD|D3 A|d dB d|c AG F/F/|E2F G|A3 z| 
dd Bd|c A FE|DD dB|A3 F/E/|D DE/E/ F|(GB) A A|E DD D|D3||

